X: 2427
M: C
L: 1/8
K: G
(uba) |\
(vge) zf e4- | e>ba>g a2(ba) |\
(ge) zf e4- | e>ba>g a2(ba) |\
(vge) zf e4- | e>ba>g a2(b>c') |\
d'>c'b>a b>ag>e | d2[f2A2] [g2B2] :|
|: (3(DEF) |\


